public/site/templates/assets/images/bkt-logotipo.svg

<?xml version="1.0" encoding="UTF-8" standalone="no"?>
<!-- Generator: Adobe Illustrator 19.0.0, SVG Export Plug-In . SVG Version: 6.00 Build 0)  -->
<svg id="Capa_1" style="enable-background:new 0 0 168.1 45" xmlns="http://www.w3.org/2000/svg" xml:space="preserve" viewBox="0 0 168.1 45" version="1.0" y="0px" x="0px" xmlns:xlink="http://www.w3.org/1999/xlink">
<style type="text/css">
	.st0{fill:#23A0CC;}
</style>
		<polygon points="61.4 0.3 54.2 0.3 53.8 0.8 39 21.7 43.4 21.7 44.8 23.5 56.9 39.9 63.7 39.9 48.2 18.7" class="st0"/>
		<path class="st0" d="m70.9 0.3h-2l-4 5.6h11.4v34.1h5.9v-34.1h9.5v-5.6h-20.8z"/>
		<path class="st0" d="m21.1 19.2c2.4-2.6 4.2-5.6 4.2-8.7 0-6.1-4.3-10.2-11.8-10.2h-13.5v39.6h13.1c4.5 0 7.9-1 10.3-3.1 2.4-2 3.5-5 3.5-8.8s-2.4-7.3-5.8-8.8zm-7.7 15.2h-7.5v-28.5h7.5c4.6 0 6.1 2.7 6.1 5.1 0 3.6-3.5 6.4-6 9-1 1.1-1.8 1.8-1.8 1.8s0.8 0 1.7 0c5 0 7.8 2.1 7.8 6.3 0 4.1-2.6 6.3-7.8 6.3z"/>
		<polygon points="33.2 0.3 33.2 39.9 39 39.9 39 21.7 39 0.3" class="st0"/>
		<path class="st0" d="m105.1 6.6c0.6-0.7 1.6-1.3 3.1-1.3 3.3 0 4.6 2.2 4.6 5.5 0 3.4-1.4 5.6-4.6 5.6-1.6 0-2.6-0.6-3.3-1.3l-0.4 1.1h-0.9v-16.2h1.4v6.6zm3 0c-1.6 0-2.6 0.9-3 1.6v5.3c0.4 0.7 1.4 1.6 3 1.6 2.6 0 3.3-1.9 3.3-4.3 0-2.5-0.7-4.2-3.3-4.2z"/>
		<path class="st0" d="m115.2 1.5c0-0.8 0.5-1.1 1.1-1.1s1.1 0.4 1.1 1.1c0 0.8-0.6 1.1-1.1 1.1-0.6 0-1.1-0.3-1.1-1.1zm0.5 4h1.4v10.7h-1.4v-10.7z"/>
		<path class="st0" d="m124.4 5.2c1.8 0 3.1 0.7 3.8 2.1l-1 0.7c-0.6-1.1-1.5-1.5-2.7-1.5-2.4 0-3.3 1.8-3.3 4.3s0.9 4.3 3.3 4.3c1.2 0 2.2-0.5 2.7-1.5l1.1 0.7c-0.7 1.3-2.1 2-3.8 2-3.2 0-4.6-2.3-4.6-5.5-0.1-3.1 1.3-5.6 4.5-5.6z"/>
		<path class="st0" d="m130.3 1.5c0-0.8 0.5-1.1 1.1-1.1s1.1 0.4 1.1 1.1c0 0.8-0.6 1.1-1.1 1.1-0.6 0-1.1-0.3-1.1-1.1zm0.4 4h1.4v10.7h-1.4v-10.7z"/>
		<path class="st0" d="m105.1 45h-1.4v-15.7h1.4v1.1c0.6-0.7 1.7-1.3 3.2-1.3 3.2 0 4.5 2.2 4.5 5.6 0 3.3-1.4 5.5-4.6 5.5-1.5 0-2.6-0.6-3.2-1.3v6.1zm3-14.6c-1.5 0-2.5 0.7-3 1.6v5.4c0.4 0.7 1.4 1.6 3 1.6 2.6 0 3.3-1.7 3.3-4.2 0.1-2.6-0.7-4.4-3.3-4.4z"/>
		<path class="st0" d="m124.4 40h-1.4v-1.3c-0.7 0.9-2.1 1.5-3.6 1.5-2.8 0-3.8-1.4-3.8-4v-6.9h1.4v6.8c0 1.9 0.7 2.8 2.7 2.8 1.5 0 2.6-0.6 3.3-1.5v-8.1h1.4v10.7zm-1.7-16.3l-2 3.5h-1.3l1.8-3.5h1.5z"/>
		<path class="st0" d="m129.1 30.4c0.6-0.7 1.6-1.3 3.1-1.3 3.3 0 4.6 2.2 4.6 5.5 0 3.4-1.4 5.6-4.6 5.6-1.6 0-2.6-0.6-3.3-1.3l-0.4 1.1h-0.9v-16.2h1.4v6.6zm3 0c-1.6 0-2.6 0.9-2.9 1.6v5.3c0.4 0.7 1.4 1.6 2.9 1.6 2.6 0 3.3-1.9 3.3-4.3 0-2.5-0.7-4.2-3.3-4.2z"/>
		<path class="st0" d="m141 23.8v13.3c0 1.1 0.3 1.5 1.1 1.5h0.6v1.4h-0.9c-1.7 0-2.2-1-2.2-2.7v-13.5h1.4z"/>
		<path class="st0" d="m144.6 25.3c0-0.8 0.5-1.1 1.1-1.1s1.1 0.4 1.1 1.1c0 0.8-0.6 1.1-1.1 1.1-0.6 0-1.1-0.3-1.1-1.1zm0.5 4h1.4v10.7h-1.4v-10.7z"/>
		<path class="st0" d="m153.9 29c1.8 0 3.1 0.7 3.8 2.1l-1.1 0.7c-0.6-1.1-1.5-1.5-2.7-1.5-2.4 0-3.3 1.8-3.3 4.3s0.9 4.3 3.3 4.3c1.2 0 2.2-0.5 2.7-1.5l1.1 0.7c-0.7 1.3-2.1 2-3.8 2-3.2 0-4.6-2.3-4.6-5.5-0.1-3.1 1.4-5.6 4.6-5.6z"/>
		<path class="st0" d="m166.8 40v-1.4c-0.6 0.7-1.8 1.6-3.7 1.6-2.1 0-3.3-1.1-3.3-3 0-2.1 1.9-3 4.8-3.4l2.2-0.3v-1.2c0-1.4-0.6-2.1-2.5-2.1-1.7 0-2.5 0.6-2.5 1.4v0.7h-1.3v-0.8c0-1.5 1.2-2.6 3.9-2.6 2.6 0 3.8 1.1 3.8 3.3v7.8h-1.4zm-3.5-1c1.5 0 2.6-0.7 3.4-1.5v-2.8l-2.1 0.3c-2.1 0.3-3.4 0.9-3.4 2.2 0 1.1 0.7 1.8 2.1 1.8z"/>
</svg>

<?xml version="1.0" encoding="utf-8"?>
<!-- Generator: Adobe Illustrator 19.0.0, SVG Export Plug-In . SVG Version: 6.00 Build 0)  -->
<svg version="1.0" id="Capa_1" xmlns="http://www.w3.org/2000/svg" xmlns:xlink="http://www.w3.org/1999/xlink" x="0px" y="0px"
	 viewBox="0 0 168.1 45" style="enable-background:new 0 0 168.1 45;" xml:space="preserve">
<style type="text/css">
	.st0{fill:#23A0CC;}
</style>
<g>
	<g>
		<polygon class="st0" points="61.4,0.3 54.2,0.3 53.8,0.8 39,21.7 43.4,21.7 44.8,23.5 56.9,39.9 63.7,39.9 48.2,18.7 		"/>
		<path class="st0" d="M70.9,0.3c-0.7,0-2,0-2,0l-4,5.6h1.5h9.9v34.1h5.9V5.9h9.5V0.3C91.7,0.3,71.5,0.3,70.9,0.3z"/>
		<path class="st0" d="M21.1,19.2c2.4-2.6,4.2-5.6,4.2-8.7c0-6.1-4.3-10.2-11.8-10.2H0v39.6h13.1c4.5,0,7.9-1,10.3-3.1
			c2.4-2,3.5-5,3.5-8.8C26.9,24.2,24.5,20.7,21.1,19.2z M13.4,34.4l-7.5,0c0,0,0-28.4,0-28.5h7.5c4.6,0,6.1,2.7,6.1,5.1
			c0,3.6-3.5,6.4-6,9c-1,1.1-1.8,1.8-1.8,1.8s0.8,0,1.7,0c5,0,7.8,2.1,7.8,6.3C21.2,32.2,18.6,34.4,13.4,34.4z"/>
		<polygon class="st0" points="33.2,0.3 33.2,39.9 39,39.9 39,21.7 39,0.3 		"/>
	</g>
	<g>
		<path class="st0" d="M105.1,6.6c0.6-0.7,1.6-1.3,3.1-1.3c3.3,0,4.6,2.2,4.6,5.5c0,3.4-1.4,5.6-4.6,5.6c-1.6,0-2.6-0.6-3.3-1.3
			l-0.4,1.1h-0.9V0h1.4V6.6z M108.1,6.6c-1.6,0-2.6,0.9-3,1.6v5.3c0.4,0.7,1.4,1.6,3,1.6c2.6,0,3.3-1.9,3.3-4.3
			C111.4,8.3,110.7,6.6,108.1,6.6z"/>
		<path class="st0" d="M115.2,1.5c0-0.8,0.5-1.1,1.1-1.1c0.6,0,1.1,0.4,1.1,1.1c0,0.8-0.6,1.1-1.1,1.1
			C115.7,2.6,115.2,2.3,115.2,1.5z M115.7,5.5h1.4v10.7h-1.4V5.5z"/>
		<path class="st0" d="M124.4,5.2c1.8,0,3.1,0.7,3.8,2.1L127.2,8c-0.6-1.1-1.5-1.5-2.7-1.5c-2.4,0-3.3,1.8-3.3,4.3
			c0,2.5,0.9,4.3,3.3,4.3c1.2,0,2.2-0.5,2.7-1.5l1.1,0.7c-0.7,1.3-2.1,2-3.8,2c-3.2,0-4.6-2.3-4.6-5.5
			C119.8,7.7,121.2,5.2,124.4,5.2z"/>
		<path class="st0" d="M130.3,1.5c0-0.8,0.5-1.1,1.1-1.1c0.6,0,1.1,0.4,1.1,1.1c0,0.8-0.6,1.1-1.1,1.1
			C130.8,2.6,130.3,2.3,130.3,1.5z M130.7,5.5h1.4v10.7h-1.4V5.5z"/>
		<path class="st0" d="M105.1,45h-1.4V29.3h1.4v1.1c0.6-0.7,1.7-1.3,3.2-1.3c3.2,0,4.5,2.2,4.5,5.6c0,3.3-1.4,5.5-4.6,5.5
			c-1.5,0-2.6-0.6-3.2-1.3V45z M108.1,30.4c-1.5,0-2.5,0.7-3,1.6v5.4c0.4,0.7,1.4,1.6,3,1.6c2.6,0,3.3-1.7,3.3-4.2
			C111.5,32.2,110.7,30.4,108.1,30.4z"/>
		<path class="st0" d="M124.4,40h-1.4v-1.3c-0.7,0.9-2.1,1.5-3.6,1.5c-2.8,0-3.8-1.4-3.8-4v-6.9h1.4v6.8c0,1.9,0.7,2.8,2.7,2.8
			c1.5,0,2.6-0.6,3.3-1.5v-8.1h1.4V40z M122.7,23.7l-2,3.5h-1.3l1.8-3.5H122.7z"/>
		<path class="st0" d="M129.1,30.4c0.6-0.7,1.6-1.3,3.1-1.3c3.3,0,4.6,2.2,4.6,5.5c0,3.4-1.4,5.6-4.6,5.6c-1.6,0-2.6-0.6-3.3-1.3
			l-0.4,1.1h-0.9V23.8h1.4V30.4z M132.1,30.4c-1.6,0-2.6,0.9-2.9,1.6v5.3c0.4,0.7,1.4,1.6,2.9,1.6c2.6,0,3.3-1.9,3.3-4.3
			C135.4,32.1,134.7,30.4,132.1,30.4z"/>
		<path class="st0" d="M141,23.8v13.3c0,1.1,0.3,1.5,1.1,1.5h0.6V40h-0.9c-1.7,0-2.2-1-2.2-2.7V23.8H141z"/>
		<path class="st0" d="M144.6,25.3c0-0.8,0.5-1.1,1.1-1.1c0.6,0,1.1,0.4,1.1,1.1c0,0.8-0.6,1.1-1.1,1.1
			C145.1,26.4,144.6,26.1,144.6,25.3z M145.1,29.3h1.4V40h-1.4V29.3z"/>
		<path class="st0" d="M153.9,29c1.8,0,3.1,0.7,3.8,2.1l-1.1,0.7c-0.6-1.1-1.5-1.5-2.7-1.5c-2.4,0-3.3,1.8-3.3,4.3
			c0,2.5,0.9,4.3,3.3,4.3c1.2,0,2.2-0.5,2.7-1.5l1.1,0.7c-0.7,1.3-2.1,2-3.8,2c-3.2,0-4.6-2.3-4.6-5.5C149.2,31.5,150.7,29,153.9,29
			z"/>
		<path class="st0" d="M166.8,40v-1.4c-0.6,0.7-1.8,1.6-3.7,1.6c-2.1,0-3.3-1.1-3.3-3c0-2.1,1.9-3,4.8-3.4l2.2-0.3v-1.2
			c0-1.4-0.6-2.1-2.5-2.1c-1.7,0-2.5,0.6-2.5,1.4v0.7h-1.3c0-0.3,0-0.5,0-0.8c0-1.5,1.2-2.6,3.9-2.6c2.6,0,3.8,1.1,3.8,3.3V40H166.8
			z M163.3,39c1.5,0,2.6-0.7,3.4-1.5v-2.8l-2.1,0.3c-2.1,0.3-3.4,0.9-3.4,2.2C161.2,38.3,161.9,39,163.3,39z"/>
	</g>
</g>
</svg>
